images/fig17.svg

<?xml version="1.0" standalone="no"?>
<!DOCTYPE svg PUBLIC "-//W3C//DTD SVG 1.1//EN" 
  "http://www.w3.org/Graphics/SVG/1.1/DTD/svg11.dtd">
<!-- Created with ASCIIToSVG (http://9vx.org/~dho/a2s/) -->
<svg width="351px" height="432px" version="1.1"
  xmlns="http://www.w3.org/2000/svg" xmlns:xlink="http://www.w3.org/1999/xlink">
  <defs>
    <filter id="dsFilter" width="150%" height="150%">
      <feOffset result="offOut" in="SourceGraphic" dx="3" dy="3"/>
      <feColorMatrix result="matrixOut" in="offOut" type="matrix" values="0.2 0 0 0 0 0 0.2 0 0 0 0 0 0.2 0 0 0 0 0 1 0"/>
      <feBlend in="SourceGraphic" in2="matrixOut" mode="normal"/>
    </filter>
    <marker id="iPointer"
      viewBox="0 0 10 10" refX="5" refY="5" 
      markerUnits="strokeWidth"
      markerWidth="8" markerHeight="7"
      orient="auto">
      <path d="M 10 0 L 10 10 L 0 5 z" />
    </marker>
    <marker id="Pointer"
      viewBox="0 0 10 10" refX="5" refY="5" 
      markerUnits="strokeWidth"
      markerWidth="8" markerHeight="7"
      orient="auto">
      <path d="M 0 0 L 10 5 L 0 10 z" />
    </marker>
  </defs><g id="boxes" stroke="black" stroke-width="2" fill="none" >
<g id="group0">
	<path id="path0" filter="url(#dsFilter)" fill="#fff" d="M 4.5 8 L 94.5 8 L 94.5 62 Q 94.5 72 84.5 72 L 14.5 72 Q 4.5 72 4.5 62 Z" />
	<text x="17.1" y="28.8" id="text0" fill="#000" stroke="none" style="font-family:LMMono10,monospace;font-size:15.2px" >Client </text>

	<text x="35.1" y="60.8" id="text0" fill="#000" stroke="none" style="font-family:LMMono10,monospace;font-size:15.2px" >REQ </text>

</g>
<g id="group2">
	<path id="path2" filter="url(#dsFilter)" fill="#fff" d="M 130.5 8 L 220.5 8 L 220.5 62 Q 220.5 72 210.5 72 L 140.5 72 Q 130.5 72 130.5 62 Z" />
	<text x="143.1" y="28.8" id="text2" fill="#000" stroke="none" style="font-family:LMMono10,monospace;font-size:15.2px" >Client </text>

	<text x="161.1" y="60.8" id="text2" fill="#000" stroke="none" style="font-family:LMMono10,monospace;font-size:15.2px" >REQ </text>

</g>
<g id="group4">
	<path id="path4" filter="url(#dsFilter)" fill="#fff" d="M 256.5 8 L 346.5 8 L 346.5 62 Q 346.5 72 336.5 72 L 266.5 72 Q 256.5 72 256.5 62 Z" />
	<text x="269.1" y="28.8" id="text4" fill="#000" stroke="none" style="font-family:LMMono10,monospace;font-size:15.2px" >Client </text>

	<text x="287.1" y="60.8" id="text4" fill="#000" stroke="none" style="font-family:LMMono10,monospace;font-size:15.2px" >REQ </text>

</g>
<g id="group24">
	<path id="path24" filter="url(#dsFilter)" fill="#fff" d="M 121.5 162 Q 121.5 152 131.5 152 L 219.5 152 Q 229.5 152 229.5 162 L 229.5 238 Q 229.5 248 219.5 248 L 131.5 248 Q 121.5 248 121.5 238 Z" />
	<text x="143.1" y="172.8" id="text24" fill="#000" stroke="none" style="font-family:LMMono10,monospace;font-size:15.2px" >ROUTER </text>

	<text x="143.1" y="204.8" id="text24" fill="#000" stroke="none" style="font-family:LMMono10,monospace;font-size:15.2px" >Broker </text>

	<text x="143.1" y="236.8" id="text24" fill="#000" stroke="none" style="font-family:LMMono10,monospace;font-size:15.2px" >DEALER </text>

</g>
<g id="group36">
	<path id="path36" filter="url(#dsFilter)" fill="#fff" d="M 4.5 338 Q 4.5 328 14.5 328 L 84.5 328 Q 94.5 328 94.5 338 L 94.5 408 L 4.5 408 Z" />
	<text x="35.1" y="348.8" id="text36" fill="#000" stroke="none" style="font-family:LMMono10,monospace;font-size:15.2px" >REP </text>

	<text x="17.1" y="380.8" id="text36" fill="#000" stroke="none" style="font-family:LMMono10,monospace;font-size:15.2px" >Service </text>

	<text x="44.1" y="396.8" id="text36" fill="#000" stroke="none" style="font-family:LMMono10,monospace;font-size:15.2px" >A</text>

</g>
<g id="group38">
	<path id="path38" filter="url(#dsFilter)" fill="#fff" d="M 130.5 338 Q 130.5 328 140.5 328 L 210.5 328 Q 220.5 328 220.5 338 L 220.5 408 L 130.5 408 Z" />
	<text x="161.1" y="348.8" id="text38" fill="#000" stroke="none" style="font-family:LMMono10,monospace;font-size:15.2px" >REP </text>

	<text x="143.1" y="380.8" id="text38" fill="#000" stroke="none" style="font-family:LMMono10,monospace;font-size:15.2px" >Service </text>

	<text x="170.1" y="396.8" id="text38" fill="#000" stroke="none" style="font-family:LMMono10,monospace;font-size:15.2px" >B</text>

</g>
<g id="group40">
	<path id="path40" filter="url(#dsFilter)" fill="#fff" d="M 256.5 338 Q 256.5 328 266.5 328 L 336.5 328 Q 346.5 328 346.5 338 L 346.5 408 L 256.5 408 Z" />
	<text x="287.1" y="348.8" id="text40" fill="#000" stroke="none" style="font-family:LMMono10,monospace;font-size:15.2px" >REP </text>

	<text x="269.1" y="380.8" id="text40" fill="#000" stroke="none" style="font-family:LMMono10,monospace;font-size:15.2px" >Service </text>

	<text x="296.1" y="396.8" id="text40" fill="#000" stroke="none" style="font-family:LMMono10,monospace;font-size:15.2px" >C</text>

</g>
</g>
<g id="lines" stroke="black" stroke-width="2" fill="none" >
<g id="group56">
	<path id="path56" d="M 4.5 40 L 94.5 40 " />
</g>
<g id="group77">
	<path id="path77" d="M 4.5 360 L 94.5 360 " />
</g>
<g id="group195">
	<path id="path195" d="M 49.5 72 L 49.5 94 Q 49.5 104 59.5 104 L 175.5 104 L 291.5 104 Q 301.5 104 301.5 94 L 301.5 72 " />
</g>
<g id="group211">
	<path id="path211" marker-start="url(#iPointer)" marker-end="url(#Pointer)" d="M 49.5 312 L 49.5 290 Q 49.5 280 59.5 280 L 175.5 280 L 291.5 280 Q 301.5 280 301.5 290 L 301.5 312 " />
</g>
<g id="group419">
	<path id="path419" d="M 121.5 184 L 229.5 184 " />
</g>
<g id="group422">
	<path id="path422" d="M 121.5 216 L 229.5 216 " />
</g>
<g id="group439">
	<path id="path439" d="M 130.5 40 L 220.5 40 " />
</g>
<g id="group460">
	<path id="path460" d="M 130.5 360 L 220.5 360 " />
</g>
<g id="group578">
	<path id="path578" marker-end="url(#Pointer)" d="M 175.5 72 L 175.5 104 L 175.5 136 " />
</g>
<g id="group590">
	<path id="path590" marker-end="url(#Pointer)" d="M 175.5 248 L 175.5 280 L 175.5 312 " />
</g>
<g id="group821">
	<path id="path821" d="M 256.5 40 L 346.5 40 " />
</g>
<g id="group842">
	<path id="path842" d="M 256.5 360 L 346.5 360 " />
</g>
</g>
<g id="text" fill="black" style="font-family:LMMono10,monospace;font-size:15.2px" >
</g>
</svg>

<?xml version="1.0" encoding="UTF-8" standalone="no"?>
<!-- Created with Inkscape (http://www.inkscape.org/) -->

<svg
   xmlns:dc="http://purl.org/dc/elements/1.1/"
   xmlns:cc="http://creativecommons.org/ns#"
   xmlns:rdf="http://www.w3.org/1999/02/22-rdf-syntax-ns#"
   xmlns:svg="http://www.w3.org/2000/svg"
   xmlns="http://www.w3.org/2000/svg"
   version="1.1"
   width="351"
   height="432"
   id="svg2">
  <metadata
     id="metadata93">
    <rdf:RDF>
      <cc:Work
         rdf:about="">
        <dc:format>image/svg+xml</dc:format>
        <dc:type
           rdf:resource="http://purl.org/dc/dcmitype/StillImage" />
        <dc:title></dc:title>
      </cc:Work>
    </rdf:RDF>
  </metadata>
  <defs
     id="defs4">
    <filter
       width="1.5"
       height="1.5"
       color-interpolation-filters="sRGB"
       id="dsFilter">
      <feOffset
         id="feOffset7"
         dy="3"
         dx="3"
         in="SourceGraphic"
         result="offOut" />
      <feColorMatrix
         id="feColorMatrix9"
         values="0.2 0 0 0 0 0 0.2 0 0 0 0 0 0.2 0 0 0 0 0 1 0"
         type="matrix"
         in="offOut"
         result="matrixOut" />
      <feBlend
         in2="matrixOut"
         mode="normal"
         in="SourceGraphic"
         id="feBlend11" />
    </filter>
    <marker
       markerUnits="strokeWidth"
       refX="5"
       refY="5"
       markerWidth="8"
       markerHeight="7"
       orient="auto"
       viewBox="0 0 10 10"
       id="iPointer">
      <path
         d="M 10,0 10,10 0,5 z"
         id="path14" />
    </marker>
    <marker
       markerUnits="strokeWidth"
       refX="5"
       refY="5"
       markerWidth="8"
       markerHeight="7"
       orient="auto"
       viewBox="0 0 10 10"
       id="Pointer">
      <path
         d="M 0,0 10,5 0,10 z"
         id="path17" />
    </marker>
  </defs>
  <g
     id="boxes"
     style="fill:none;stroke:#000000;stroke-width:2">
    <g
       id="group0">
      <path
         d="m 4.5,8 90,0 0,54 q 0,10 -10,10 l -70,0 q -10,0 -10,-10 z"
         id="path0"
         style="fill:#ffffff;filter:url(#dsFilter)" />
      <text
         x="17.1"
         y="28.799999"
         id="text0"
         style="font-size:15.19999981px;fill:#000000;stroke:none;font-family:'LMMono10, monospace'"></text>
      <text
         x="5.1000004"
         y="28.799999"
         id="text3070"
         style="font-size:15.19999981px;fill:#000000;stroke:none;font-family:'LMMono10, monospace'">クライアント</text>
      <text
         x="35.099998"
         y="60.799999"
         id="text23"
         style="font-size:15.19999981px;fill:#000000;stroke:none;font-family:'LMMono10, monospace'">REQ</text>
    </g>
    <g
       id="group2">
      <path
         d="m 130.5,8 90,0 0,54 q 0,10 -10,10 l -70,0 q -10,0 -10,-10 z"
         id="path2"
         style="fill:#ffffff;filter:url(#dsFilter)" />
      <text
         x="131.10001"
         y="28.799999"
         id="text2"
         style="font-size:15.19999981px;fill:#000000;stroke:none;font-family:'LMMono10, monospace'">クライアント</text>
      <text
         x="161.10001"
         y="60.799999"
         id="text28"
         style="font-size:15.19999981px;fill:#000000;stroke:none;font-family:'LMMono10, monospace'">REQ</text>
    </g>
    <g
       id="group4">
      <path
         d="m 256.5,8 90,0 0,54 q 0,10 -10,10 l -70,0 q -10,0 -10,-10 z"
         id="path4"
         style="fill:#ffffff;filter:url(#dsFilter)" />
      <text
         x="257.10001"
         y="28.799999"
         id="text4"
         style="font-size:15.19999981px;fill:#000000;stroke:none;font-family:'LMMono10, monospace'">クライアント</text>
      <text
         x="287.10001"
         y="60.799999"
         id="text33"
         style="font-size:15.19999981px;fill:#000000;stroke:none;font-family:'LMMono10, monospace'">REQ</text>
    </g>
    <g
       id="group24">
      <path
         d="m 121.5,162 q 0,-10 10,-10 l 88,0 q 10,0 10,10 l 0,76 q 0,10 -10,10 l -88,0 q -10,0 -10,-10 z"
         id="path24"
         style="fill:#ffffff;filter:url(#dsFilter)" />
      <text
         x="143.10001"
         y="172.8"
         id="text24"
         style="font-size:15.19999981px;fill:#000000;stroke:none;font-family:'LMMono10, monospace'">ROUTER</text>
      <text
         x="139.10001"
         y="204.8"
         id="text38"
         style="font-size:15.19999981px;fill:#000000;stroke:none;font-family:'LMMono10, monospace'">ブローカー</text>
      <text
         x="143.10001"
         y="236.8"
         id="text40"
         style="font-size:15.19999981px;fill:#000000;stroke:none;font-family:'LMMono10, monospace'">DEALER</text>
    </g>
    <g
       id="group36">
      <path
         d="m 4.5,338 q 0,-10 10,-10 l 70,0 q 10,0 10,10 l 0,70 -90,0 z"
         id="path36"
         style="fill:#ffffff;filter:url(#dsFilter)" />
      <text
         x="35.099998"
         y="348.79999"
         id="text36"
         style="font-size:15.19999981px;fill:#000000;stroke:none;font-family:'LMMono10, monospace'">REP</text>
      <text
         x="15.1"
         y="386.79999"
         id="text45"
         style="font-size:15.19999981px;fill:#000000;stroke:none;font-family:'LMMono10, monospace'">サービスA</text>
    </g>
    <g
       id="group38">
      <path
         d="m 130.5,338 q 0,-10 10,-10 l 70,0 q 10,0 10,10 l 0,70 -90,0 z"
         id="path38"
         style="fill:#ffffff;filter:url(#dsFilter)" />
      <text
         x="161.10001"
         y="348.79999"
         id="text51"
         style="font-size:15.19999981px;fill:#000000;stroke:none;font-family:'LMMono10, monospace'">REP</text>
      <text
         x="141.10001"
         y="386.79999"
         id="text53"
         style="font-size:15.19999981px;fill:#000000;stroke:none;font-family:'LMMono10, monospace'">サービスB</text>
    </g>
    <g
       id="group40">
      <path
         d="m 256.5,338 q 0,-10 10,-10 l 70,0 q 10,0 10,10 l 0,70 -90,0 z"
         id="path40"
         style="fill:#ffffff;filter:url(#dsFilter)" />
      <text
         x="287.10001"
         y="348.79999"
         id="text59"
         style="font-size:15.19999981px;fill:#000000;stroke:none;font-family:'LMMono10, monospace'">REP</text>
      <text
         x="267.10001"
         y="386.79999"
         id="text61"
         style="font-size:15.19999981px;fill:#000000;stroke:none;font-family:'LMMono10, monospace'">サービスC</text>
    </g>
  </g>
  <g
     id="lines"
     style="fill:none;stroke:#000000;stroke-width:2">
    <g
       id="group56">
      <path
         d="m 4.5,40 90,0"
         id="path56" />
    </g>
    <g
       id="group77">
      <path
         d="m 4.5,360 90,0"
         id="path77" />
    </g>
    <g
       id="group195">
      <path
         d="m 49.5,72 0,22 q 0,10 10,10 l 116,0 116,0 q 10,0 10,-10 l 0,-22"
         id="path195" />
    </g>
    <g
       id="group211">
      <path
         d="m 49.5,312 0,-22 q 0,-10 10,-10 l 116,0 116,0 q 10,0 10,10 l 0,22"
         id="path211"
         style="marker-start:url(#iPointer);marker-end:url(#Pointer)" />
    </g>
    <g
       id="group419">
      <path
         d="m 121.5,184 108,0"
         id="path419" />
    </g>
    <g
       id="group422">
      <path
         d="m 121.5,216 108,0"
         id="path422" />
    </g>
    <g
       id="group439">
      <path
         d="m 130.5,40 90,0"
         id="path439" />
    </g>
    <g
       id="group460">
      <path
         d="m 130.5,360 90,0"
         id="path460" />
    </g>
    <g
       id="group578">
      <path
         d="m 175.5,72 0,32 0,32"
         id="path578"
         style="marker-end:url(#Pointer)" />
    </g>
    <g
       id="group590">
      <path
         d="m 175.5,248 0,32 0,32"
         id="path590"
         style="marker-end:url(#Pointer)" />
    </g>
    <g
       id="group821">
      <path
         d="m 256.5,40 90,0"
         id="path821" />
    </g>
    <g
       id="group842">
      <path
         d="m 256.5,360 90,0"
         id="path842" />
    </g>
  </g>
  <g
     id="text"
     style="font-size:15.19999981px;fill:#000000;font-family:'LMMono10, monospace'" />
</svg>
